X:1
T:Title
%%score 1 2 3 4
L:1/8
M:6/8
K:F
V:1 treble nm="Shanai, Staff"
V:2 treble nm="Bagpipe, Staff-1"
V:3 bass nm="Bagpipe, Staff-2"
V:4 treble nm="Banjo, Staff-3"
V:1
 c c2 B A2 | G F2- F/ z/ F2 | G A2 Bc>B | A G2- G2- G/ z/ | A G2 A G2 | ABc d2 c | B A2 B A2 | %7
w: By~Neapolitan~Traditional * * *|||||||
 G F2- F/ z/ AB | cB>A BGA | BA>G AAB | cB>A BGA | B A2- A2- A/ z/ | G A2 Bc>B | A G2- G2- G/ z/ | %14
w: |||||||
 A G2 A G2 | ABc d2 c | B A2 B A2 | G F2- F2- F/ z/ | c c2 B A2 | G F2- F/ z/ F2 | G A2 Bc>B | %21
w: |||||||
 A G2- G2- G/ z/ | A G2 A G2 | ABc d2 c | B A2 B A2 | G F2- F/ z/ AB | cB>A BGA | BA>G AAB | %28
w: |||||||
 cB>A BGA | B A2- A2- A/ z/ | G A2 Bc>B | A G2- G2- G/ z/ | A G2 A G2 | ABc d2 c | B A2 B A2 | %35
w: |||||||
 G F2- F2- F/ z/ |] %36
w: |
V:2
 z [CF]2- [CF]3- | [CF]6- | [CF]6- | [CF]6- | [CF]6- | [CF]6- | [CF]6- | [CF]6- | [CF]6- | [CF]6- | %10
 [CF]6- | [CF]6- | [CF]6- | [CF]6- | [CF]6- | [CF]6- | [CF]6- | [CF]6 | z [CF]2- [CF]3- | [CF]6- | %20
 [CF]6- | [CF]6- | [CF]6- | [CF]6- | [CF]6- | [CF]6- | [CF]6- | [CF]6- | [CF]6- | [CF]6- | [CF]6- | %31
 [CF]6- | [CF]6- | [CF]6- | [CF]6- | [CF]6 |] %36
V:3
 z F,2- F,3- | F,6- | F, F,2- F,3- | F,6- | F, F,2- F,3- | F,6- | F, F,2- F,3- | F,6- | %8
 F, F,2- F,3- | F,6- | F, F,2- F,3- | F,6- | F, F,2- F,3- | F,6- | F, F,2- F,3- | F,6- | %16
 F, F,2- F,3- | F,6 | z F,2- F,3- | F,6- | F, F,2- F,3- | F,6- | F, F,2- F,3- | F,6- | %24
 F, F,2- F,3- | F,6- | F, F,2- F,3- | F,6- | F, F,2- F,3- | F,6- | F, F,2- F,3- | F,6- | %32
 F, F,2- F,3- | F,6- | F, F,2- F,3- | F,6 |] %36
V:4
 A A2 G F2 | E F2- F/ z/ F2 | E F2 GA>G | F E2- E2- E/ z/ | F E2 F E2 | FGA B2 A | G F2 G F2 | %7
 E F2- F/ z/ FG | AG>F GEF | GF>E FFG | AG>F GEF | G F2- F2- F/ z/ | E F2 GA>G | F E2- E2- E/ z/ | %14
 F E2 F E2 | FGA B2 A | G F2 G F2 | E [FAc]2- [FAc]2- [FAc]/ z/ | A A2 G F2 | E F2- F/ z/ F2 | %20
 E F2 GA>G | F E2- E2- E/ z/ | F E2 F E2 | FGA B2 A | G F2 G F2 | E F2- F/ z/ FG | AG>F GEF | %27
 GF>E FFG | AG>F GEF | G F2- F2- F/ z/ | E F2 GA>G | F E2- E2- E/ z/ | F E2 F E2 | FGA B2 A | %34
 G F2 G F2 | E [FAc]2- [FAc]2- [FAc]/ z/ |] %36

